X:1
T:Title
%%score { 1 | ( 2 3 ) }
L:1/8
M:3/4
K:Eb
V:1 treble nm="Grand Piano"
V:2 bass 
V:3 bass 
V:1
 z2 z2[Q:1/4=108] [GB]2 | [GB]2 [EG][FA] [GB][Ac] | [GB]2 [EG]2 [GB]2 | [Ge]2 [Bd]2 .[CAc]2 | %4
 [EGB]4 [B,GB]2 | [FA]2 [DF][EG] [FA][GB] | [FA]2 [DF]2 [FA]2 | [B,EG]2 [B,F]2 [=A,CE]2 | %8
 [B,DF]4 [DAB]2 | [EGB]2 [EG][FA] [GB][Ac] | [GB]2 [EG]2 [GB]2 | [Ge]2 [Ad]2 [EBe]2 | %12
 [EAc]4 [EAc]2 | [Ece]2 [EBd]2 [EAc]2 | [Ac]2 [GB]2 [EG]2 | [EB]2 [DA]2 [DF]2 |[M:2/4] E4 | %17
[M:1/4] [GB]>[GB] |[M:3/4] [GB]2 [EG]2 [GB]>[GB] | [GB]2 [EG]2 [GB]>[GB] | [Ece]2 [EBd]2 [EAc]2 | %21
 [GB]4 [GB]2 | c>c c2 e2 | [Ge]>[GB] [GB]2 [GB]2 | [B,FA]2 [B,FA]2 [B,EG]2 | [B,DF]4 z2 | %26
 [B,EG]>[B,EG] [B,EG]2 [B,FA]2 | [EGB]4 [EGB]2 | [EAc]2 [EAc]2 [EAc]2 | [GB]4 [GB]2 | %30
 [Ge]2 [Ae]2 [Be]2 | e2 d2 c2 | B G3 [DF]2 |[M:2/4] E4 |] %34
V:2
 z2 z2 [E,E]2 | [E,E]2 [E,B,]2 [E,E]2 | [E,E]2 [E,B,]2 [E,E]2 | [E,B,]2 A,B, z D | E,4 E,2 | %5
 [B,,B,]2 [B,,B,]2 [B,,B,]2 | [B,,B,]2 [B,,B,]2 [B,,B,]2 | E,2 D,2 C,2 | B,,4 B,,2 | %9
 E,2 [E,B,]2 [E,E]2 | [E,E]2 [E,B,]2 [E,E]2 | [E,B,]2 [F,B,]2 G,2 | A,4 A,2 | A,,2 A,,B,, C,D, | %14
 [E,E]2 [E,E]2 [E,B,]2 | [B,,G,]2 [B,,F,]2 [B,,A,]2 |[M:2/4] [E,G,]4 |[M:1/4] [E,E]>[E,E] | %18
[M:3/4] [E,E]2 [E,B,]2 [E,E]>[E,E] | [E,E]2 [E,B,]2 [E,E]>[E,E] | A,,2 A,,B,, C,D, | %21
 [E,E]4 [E,E]2 | [A,EA]>[A,EA] [A,EA]2 [A,CA]2 | [E,B,]>[E,E] [E,E]2 [E,E]2 | D,2 D,2 E,2 | %25
 B,,4 z2 | E,>E, E,2 E,2 | E,4 E,2 | A,,2 A,,B,, C,D, | [E,E]4 [E,E]2 | %30
 [E,B,]2 [F,B,]2[K:treble] [G,E]2 | [A,CA]2 [A,CA]2 [A,EA]2 | [B,EG][K:bass] [B,E]3 [B,,A,]2 | %33
[M:2/4] [E,G,]4 |] %34
V:3
 x6 | x6 | x6 | z2 E,2 E,2 | x6 | x6 | x6 | x6 | x6 | x6 | x6 | x6 | x6 | x6 | x6 | x6 | %16
[M:2/4] x4 |[M:1/4] x2 |[M:3/4] x6 | x6 | x6 | x6 | x6 | x6 | x6 | x6 | x6 | x6 | x6 | x6 | %30
 x4[K:treble] x2 | x6 | x[K:bass] x5 |[M:2/4] x4 |] %34

